X: 2
T: Tommy Peoples'
R: mazurka
M: 3/4
L: 1/8
K: Dmaj
DF|:"D"AF A2dc|"G"BG B2ed|"A"cB c2BA|"D"F2F2DF|"D"AF A2dc|"G"BG B2ed|"A"cB c2BA|[1"D"d2d2DF:|[2"D"d2d2fg||"D"af d2A2|"G"c2B2ef|"A"ge c2A2|"D"Bc A2fg|"D"af d2A2|"G"c2B2ef|"A"gecABc|[1"D"d2d2fg:|[2"D"D2D4|]


Tune 1323	Setting 1323

